X: 614
T: Doth Not a Meeting Like This?   #2
T: ann ne na\.c tea\.gmail mar seo?
R: jig
%S: s:2 b:9(5+4)
B: O'Neill's 1850 #614
Z: John Walsh (walsh@math.ubc.ca)
Q: "Gaily."
M: 2/4
L: 1/8
K: G
D "^A"|: (G>AG) (B>AB) | (G>Bd) e2d | (g>fe) (edB) |[1 (B<AA) A2D :|[1 (cEF) G2 |]
"^B"[|d | (d>ef) (gfe) | (a>ge) (edB) | (d>ef) gdB | BAA HA2 "^->A2"d |]
